X:16263
T:Ta hit en fiol
S:Uppt. efter Viktor Andersson
R:Minuet
M:3/4
L:1/16
O:Finland
A:Jeppo, \"Osterbotten (Finland)
K:D
{e}a2z(b a2)^ga b2a2 | fdfa {b}a2^ga b2a2 |\
gfga b2a2 g2eg | f2ed e8 ::\
{ef}e2zd c2d2 efed | cdef g2eg f2d2 |\
efed cdef gfed | cdef g2eg f2ed |\
g2zg b2b2 a2a2 | cdec d8 :|
